X: 4152
T: Blue Friesian, The
R: reel
M: 4/4
K: Cmajor
EDEG cedc|AEAe ceAc|GEED E3 e|ceAG EDDG|
EDEG cedc|AEAe ceAc|GEED E3 e|1 ceAG EDDG:|2 ceAG EDDg||
egge d2 ed|cedB cAGE|EDEG cdBc|AEAc eAcd|
egge d2 ed|cedB cAAc|GEED E3 e|ceAG ED D2:|

